X: 29821
T: O'Connor Donn's
R: reel
M: 4/4
K: Fmajor
|:A2 GF cFFG|(3AAA GF ~G2 FG|EGCG Efed|(3ccc BG AGFG
A2 GF cFFG|(3AAA GF ~G2 FG|EGCG Efed|1 (3ccc BG AFFG:|2 (3ccc BG F4||
|:egge cdeg|cdeg c=Bcd|egge cdec|dffe f4|
eggf eggf|eggf egcg|egga bagf|1 efge f4:|2 efge fccB||

